icon-themes/breeze_svg/cmd/lc_changecasetolower.svg

<svg viewBox="0 0 24 24" xmlns="http://www.w3.org/2000/svg"><path d="m13 8v12h1v-1.361328a4 4 0 0 0 3 1.361328 4 4 0 0 0 4-4 4 4 0 0 0 -4-4 4 4 0 0 0 -3 1.361328v-5.361328zm-6 4a4 4 0 0 0 -4 4 4 4 0 0 0 4 4 4 4 0 0 0 3-1.361328v1.361328h1v-4-4h-1v1.361328a4 4 0 0 0 -3-1.361328zm0 1a3 3 0 0 1 3 3 3 3 0 0 1 -3 3 3 3 0 0 1 -3-3 3 3 0 0 1 3-3zm10 0a3 3 0 0 1 3 3 3 3 0 0 1 -3 3 3 3 0 0 1 -3-3 3 3 0 0 1 3-3z" fill="#4d4d4d"/><path d="m14 3 3 4 3-4z" fill="#1d99f3"/></svg>

<svg xmlns="http://www.w3.org/2000/svg" viewBox="0 0 24 24">
 <path 
     style="fill:#4d4d4d" 
     d="M 13 8 L 13 20 L 14 20 L 14 18.638672 A 4 4 0 0 0 17 20 A 4 4 0 0 0 21 16 A 4 4 0 0 0 17 12 A 4 4 0 0 0 14 13.361328 L 14 8 L 13 8 z M 7 12 A 4 4 0 0 0 3 16 A 4 4 0 0 0 7 20 A 4 4 0 0 0 10 18.638672 L 10 20 L 11 20 L 11 16 L 11 12 L 10 12 L 10 13.361328 A 4 4 0 0 0 7 12 z M 7 13 A 3 3 0 0 1 10 16 A 3 3 0 0 1 7 19 A 3 3 0 0 1 4 16 A 3 3 0 0 1 7 13 z M 17 13 A 3 3 0 0 1 20 16 A 3 3 0 0 1 17 19 A 3 3 0 0 1 14 16 A 3 3 0 0 1 17 13 z "
     />
 <path 
     style="fill:#1d99f3" 
     d="M 14 3 L 17 7 L 20 3 L 14 3 z "
     />
 </svg>
